images/aws-icon.svg

<svg width="120" height="770" viewBox="0 0 2500 770" fill="none" xmlns="http://www.w3.org/2000/svg">
<g clip-path="url(#clip0)">
<path d="M362.524 279.71C362.096 292.55 363.808 305.39 367.232 317.802C371.084 328.503 375.792 338.775 380.928 348.619C382.64 351.615 383.924 355.039 383.924 358.463C383.496 363.599 380.5 368.735 375.792 371.304L348.827 389.28C345.403 391.42 341.551 393.132 337.699 393.132C332.991 392.704 328.283 390.564 324.859 387.14C319.295 381.148 313.731 374.3 309.45 367.023C305.17 359.747 300.89 351.615 296.182 341.771C262.797 381.148 220.853 400.836 170.348 400.836C134.395 400.836 105.718 390.564 84.7458 370.02C63.7734 349.475 53.0731 322.083 53.0731 287.842C53.0731 251.461 65.9134 221.928 92.0219 199.672C118.13 177.416 152.799 166.287 196.884 166.287C211.864 166.287 227.273 167.571 242.253 169.711C258.089 171.851 274.354 175.275 291.474 179.128V147.883C291.474 115.354 284.626 92.6698 271.358 79.4015C258.089 66.1332 234.549 59.7131 201.592 59.7131C186.184 59.7131 170.348 61.4251 155.367 65.2772C139.531 69.1293 124.123 73.8374 109.142 79.8295C104.434 81.9695 99.2981 83.6816 94.162 85.3936C92.0219 86.2496 89.4539 86.6776 87.3138 86.6776C81.3217 86.6776 78.3257 82.3976 78.3257 73.4094V52.4369C77.8976 47.3008 79.1817 42.1647 81.3217 37.4566C84.7458 33.6045 88.5979 30.6085 93.306 28.4684C110.426 19.9083 128.403 13.4881 147.235 9.20803C169.064 3.64391 191.748 1.07586 214.004 1.07586C264.938 1.07586 302.174 12.6321 326.143 35.7446C350.111 58.8571 361.668 93.9538 361.668 141.035V279.71H362.524ZM188.752 344.767C203.732 344.767 218.713 342.199 232.837 337.063C248.673 331.499 262.369 322.083 273.498 309.67C280.346 301.966 285.482 292.55 288.05 282.278C291.046 270.293 292.33 257.453 292.33 245.041V227.065C279.49 224.068 266.222 221.5 252.953 219.788C239.685 218.076 225.989 217.22 212.72 217.22C184.044 217.22 163.071 222.784 148.947 234.341C134.823 245.897 127.975 262.161 127.975 283.562C127.975 303.678 133.111 318.658 143.811 328.931C154.511 339.203 169.064 344.767 188.752 344.767V344.767ZM532.443 390.992C526.879 391.42 520.887 390.136 516.179 386.712C511.899 382.004 508.475 376.44 507.191 370.02L406.608 39.1687C404.468 33.6045 403.184 28.0404 402.756 22.0483C402.328 16.9122 405.752 12.2041 410.889 11.3481H455.401C463.534 11.3481 469.098 12.6321 472.094 15.6282C475.09 18.6242 478.086 24.1883 480.654 32.3205L552.131 315.662L618.901 32.3205C621.041 23.7603 623.609 18.1962 627.033 15.6282C632.169 12.6321 638.161 10.9201 644.153 11.3481H678.394C686.526 11.3481 692.09 12.6321 695.515 15.6282C699.795 20.3363 702.791 25.9004 703.647 32.3205L771.272 319.086L845.318 32.3205C846.602 25.9004 849.598 20.3363 853.878 15.6282C859.014 12.6321 864.578 10.9201 870.57 11.3481H910.375C915.511 10.4921 920.219 14.3441 921.075 19.4802V22.0483C921.075 24.1883 920.647 26.7564 920.219 28.8964C919.363 32.7485 918.507 36.1726 917.223 39.5967L814.073 370.448C811.505 379.008 808.509 384.572 805.085 387.14C800.377 390.136 794.385 391.848 788.82 391.42H752.012C743.879 391.42 738.315 390.136 734.891 387.14C730.611 382.432 727.615 376.44 726.759 370.02L660.418 93.9538L594.504 369.592C593.648 376.012 590.652 382.004 586.372 386.712C581.236 390.136 575.244 391.42 569.252 390.992H532.443V390.992ZM1082.43 402.548C1060.18 402.548 1037.92 399.98 1016.52 394.844C995.121 389.708 978.428 384.144 967.3 377.724C961.736 375.156 957.028 370.876 954.032 365.739C952.32 361.887 951.464 358.035 951.464 353.755V331.927C951.464 322.939 954.888 318.658 961.308 318.658C963.876 318.658 966.444 319.086 969.012 319.942C971.58 320.798 975.432 322.511 979.712 324.223C994.693 331.071 1010.53 335.779 1026.79 339.203C1043.49 342.627 1060.61 344.339 1077.73 344.339C1104.69 344.339 1125.66 339.631 1140.22 330.215C1154.34 321.655 1162.9 306.246 1162.47 289.554C1162.9 278.426 1158.62 267.725 1150.92 259.593C1143.21 251.461 1128.66 244.185 1107.69 237.337L1045.63 218.076C1014.38 208.232 991.269 193.68 977.144 174.419C963.448 156.443 955.744 135.043 955.744 112.358C955.316 95.6658 959.168 79.4015 967.3 64.8492C975.004 51.1529 985.277 39.1687 998.117 29.7525C1011.39 19.4802 1026.37 12.2041 1042.63 7.49599C1060.18 2.35989 1078.15 -0.208165 1096.56 0.219843C1105.98 0.219843 1115.82 0.647852 1125.24 1.93188C1135.08 3.21591 1144.07 4.92794 1153.06 6.63998C1162.04 8.35201 1169.75 10.9201 1177.45 13.4881C1183.87 15.6282 1189.86 18.1962 1195.43 21.1923C1200.56 23.7603 1204.85 27.1844 1208.27 31.8925C1211.27 36.1726 1212.55 40.8807 1212.12 46.0168V66.1332C1212.12 75.1214 1208.7 79.8295 1202.28 79.8295C1196.71 78.9735 1191.15 77.2614 1186.01 74.6934C1160.33 63.1372 1132.08 57.573 1103.83 58.001C1079.44 58.001 1060.18 61.8531 1046.91 69.9853C1033.64 78.1175 1026.79 90.5297 1026.79 108.078C1026.37 119.634 1031.07 130.763 1039.63 138.467C1048.19 146.599 1064.03 154.731 1086.71 162.007L1147.49 181.268C1178.31 191.112 1200.57 204.808 1213.83 222.356C1227.1 239.477 1233.95 260.877 1233.52 282.278C1233.95 299.398 1230.1 316.518 1222.39 331.927C1214.69 346.479 1203.99 359.319 1191.15 369.592C1177.02 380.72 1160.76 388.852 1143.64 393.56C1123.95 399.552 1103.41 402.548 1082.43 402.548V402.548Z" fill="#252F3E"/>
<path d="M1163.33 610.56C1022.51 714.567 817.925 769.78 642.013 769.78C395.48 769.78 173.344 678.614 5.56416 527.099C-7.70412 515.114 4.28013 498.85 20.1165 508.266C201.592 613.557 425.441 677.33 656.994 677.33C823.917 676.474 989.129 642.661 1142.78 578.032C1166.32 567.332 1186.44 593.44 1163.33 610.56Z" fill="#FF9900"/>
<path d="M1221.97 543.791C1203.99 520.678 1102.98 532.663 1057.18 538.227C1043.49 539.939 1041.35 527.955 1053.76 518.966C1134.22 462.469 1266.48 478.734 1281.89 497.566C1297.3 516.398 1277.61 649.081 1202.28 712.426C1190.72 722.271 1179.59 717.134 1184.73 704.294C1201.85 661.921 1239.94 566.475 1221.97 543.791V543.791Z" fill="#FF9900"/>
<path d="M1971.41 481.302C1975.69 489.863 1982.11 497.139 1989.81 502.703C1997.95 508.267 2006.93 512.547 2016.78 514.687C2027.05 517.255 2037.75 518.539 2048.45 518.539C2056.58 518.539 2064.29 517.683 2072.42 516.827C2080.55 515.543 2088.68 513.403 2096.39 509.551C2103.66 506.127 2110.08 500.991 2114.79 494.999C2119.93 488.15 2122.5 480.018 2122.07 471.458C2122.5 462.042 2118.64 453.054 2112.22 446.634C2104.95 439.786 2095.96 434.649 2086.54 430.797C2074.99 426.089 2063 422.665 2050.59 419.669C2037.32 416.673 2023.63 412.821 2009.93 408.969C1995.81 405.545 1982.11 401.265 1968.41 396.129C1955.57 391.42 1943.16 384.572 1932.46 376.012C1921.76 367.88 1913.2 357.608 1906.78 345.624C1899.93 331.927 1896.51 316.947 1896.94 301.539C1896.51 283.99 1900.79 266.442 1909.78 251.034C1917.91 236.909 1929.04 224.497 1942.3 215.081C1956 205.237 1971.41 198.388 1987.67 193.68C2004.37 188.972 2021.49 186.832 2038.61 186.832C2057.87 186.832 2076.7 188.972 2095.53 193.252C2113.08 197.104 2129.34 204.381 2143.9 214.653C2158.02 224.497 2169.58 237.337 2177.71 252.318C2186.27 269.438 2190.55 288.698 2190.12 307.959H2109.66C2109.23 298.115 2106.66 288.698 2102.38 280.138C2098.53 272.862 2092.96 266.87 2086.12 262.59C2078.84 258.31 2071.14 255.314 2063 253.602C2053.59 251.89 2044.17 251.034 2034.75 251.034C2027.91 251.034 2021.06 251.89 2014.64 253.174C2008.22 254.458 2001.8 257.026 1996.23 260.45C1990.67 263.874 1986.39 268.582 1982.97 273.718C1979.11 279.71 1977.4 286.558 1977.83 293.834C1977.4 300.255 1979.11 306.247 1982.11 311.811C1986.39 317.803 1991.95 322.083 1998.8 324.651C2009.93 329.359 2021.49 333.211 2033.04 336.207C2047.59 340.059 2066.85 345.196 2090.4 351.188C2097.24 352.472 2107.09 355.04 2119.93 358.892C2133.2 362.744 2145.61 368.736 2157.16 376.44C2170.01 385 2181.13 395.701 2189.27 408.541C2198.25 422.237 2202.96 439.357 2202.96 460.758C2202.96 477.45 2199.54 493.715 2192.69 509.123C2185.84 524.103 2175.57 537.372 2162.73 547.644C2148.18 559.2 2131.48 567.76 2113.51 572.896C2091.25 579.316 2068.57 582.312 2045.45 581.884C2024.91 581.884 2004.79 579.316 1984.68 574.18C1965.84 569.472 1948.3 561.34 1932.89 549.784C1917.91 538.656 1905.5 524.531 1896.94 507.839C1887.52 489.007 1883.24 468.462 1884.1 447.49H1964.56C1964.13 459.902 1966.7 471.03 1971.41 481.302V481.302ZM2361.75 353.328C2370.74 352.9 2379.3 350.76 2387.43 347.336C2395.14 344.34 2401.99 339.203 2407.12 332.783C2412.69 325.507 2415.25 316.519 2414.83 307.531C2414.83 291.694 2409.69 279.282 2398.99 271.15C2388.72 262.59 2375.88 258.31 2362.61 258.31C2343.35 258.31 2329.22 264.73 2319.38 277.142C2309.11 290.838 2304.4 307.531 2305.26 324.651H2233.78C2234.21 306.675 2237.63 289.126 2244.05 272.434C2250.04 257.454 2258.6 243.329 2270.16 231.773C2281.72 220.217 2294.98 211.229 2309.96 205.665C2326.66 199.244 2344.2 196.248 2361.75 196.248C2376.73 196.248 2391.71 198.388 2406.27 202.669C2420.82 206.949 2434.09 213.797 2446.07 222.357C2457.63 230.917 2467.47 242.045 2474.75 254.458C2482.45 267.726 2486.3 283.134 2485.88 298.543C2486.3 315.235 2481.6 331.927 2473.04 346.052C2464.05 360.176 2450.35 370.02 2434.09 374.3V375.584C2452.92 379.436 2470.04 389.708 2482.02 405.117C2494.01 420.953 2500 440.214 2499.57 459.474C2500 477.45 2496.15 495.427 2488.44 511.263C2481.17 526.243 2470.9 539.084 2458.06 549.356C2444.79 559.628 2430.23 567.76 2413.97 572.468C2397.28 577.604 2379.73 580.6 2362.18 580.6C2342.92 581.028 2323.66 577.604 2305.26 571.612C2288.99 566.048 2274.01 557.06 2261.6 545.504C2249.19 533.519 2239.77 519.395 2233.78 503.131C2226.93 484.726 2223.93 465.466 2224.36 445.778H2295.84C2296.27 455.194 2297.55 465.038 2300.55 474.026C2303.12 482.586 2307.4 490.291 2312.96 497.567C2318.52 503.987 2324.94 509.551 2332.65 512.975C2341.64 517.255 2351.05 518.967 2360.9 518.967C2376.73 519.395 2392.14 513.831 2403.7 503.559C2415.25 493.287 2421.25 478.734 2421.25 460.758C2421.25 446.634 2418.68 435.933 2413.11 428.657C2407.98 421.381 2400.7 415.817 2392.14 412.393C2383.15 408.969 2373.74 407.257 2364.32 406.829C2354.05 406.401 2344.63 405.973 2335.64 405.973V353.328C2344.2 354.184 2353.19 354.184 2361.75 353.328ZM1606.75 8.35254H1636.71V761.648H1606.75V8.35254Z" fill="#252F3E"/>
</g>
<defs>
<clipPath id="clip0">
<rect width="2500" height="770" fill="white"/>
</clipPath>
</defs>
</svg>

<svg width="120" height="770" viewBox="0 0 2500 770" fill="none" xmlns="http://www.w3.org/2000/svg"><g clip-path="url(#clip0)"><path d="M362.524 279.71c-.428 12.84 1.284 25.68 4.708 38.092 3.852 10.701 8.56 20.973 13.696 30.817 1.712 2.996 2.996 6.42 2.996 9.844-.428 5.136-3.424 10.272-8.132 12.841l-26.965 17.976c-3.424 2.14-7.276 3.852-11.128 3.852-4.708-.428-9.416-2.568-12.84-5.992-5.564-5.992-11.128-12.84-15.409-20.117-4.28-7.276-8.56-15.408-13.268-25.252-33.385 39.377-75.329 59.065-125.834 59.065-35.953 0-64.63-10.272-85.602-30.816-20.973-20.545-31.673-47.937-31.673-82.178 0-36.381 12.84-65.914 38.949-88.17 26.108-22.256 60.777-33.385 104.862-33.385 14.98 0 30.389 1.284 45.369 3.424 15.836 2.14 32.101 5.564 49.221 9.417v-31.245c0-32.529-6.848-55.213-20.116-68.482-13.269-13.268-36.809-19.688-69.766-19.688-15.408 0-31.244 1.712-46.225 5.564-15.836 3.852-31.244 8.56-46.225 14.552-4.708 2.14-9.844 3.853-14.98 5.565-2.14.856-4.708 1.284-6.848 1.284-5.992 0-8.988-4.28-8.988-13.269V52.437c-.428-5.136.856-10.272 2.996-14.98 3.424-3.852 7.276-6.849 11.984-8.989 17.12-8.56 35.097-14.98 53.929-19.26 21.829-5.564 44.513-8.132 66.769-8.132 50.934 0 88.17 11.556 112.139 34.669 23.968 23.112 35.525 58.209 35.525 105.29V279.71h.856zm-173.772 65.057c14.98 0 29.961-2.568 44.085-7.704 15.836-5.564 29.532-14.98 40.661-27.393 6.848-7.704 11.984-17.12 14.552-27.392 2.996-11.985 4.28-24.825 4.28-37.237v-17.976c-12.84-2.997-26.108-5.565-39.377-7.277-13.268-1.712-26.964-2.568-40.233-2.568-28.676 0-49.649 5.564-63.773 17.121-14.124 11.556-20.972 27.82-20.972 49.221 0 20.116 5.136 35.096 15.836 45.369 10.7 10.272 25.253 15.836 44.941 15.836zm343.691 46.225c-5.564.428-11.556-.856-16.264-4.28-4.28-4.708-7.704-10.272-8.988-16.692L406.608 39.169c-2.14-5.564-3.424-11.129-3.852-17.12-.428-5.137 2.996-9.845 8.133-10.7h44.512c8.133 0 13.697 1.283 16.693 4.28 2.996 2.995 5.992 8.56 8.56 16.692l71.477 283.341 66.77-283.341c2.14-8.56 4.708-14.125 8.132-16.693 5.136-2.996 11.128-4.708 17.12-4.28h34.241c8.132 0 13.696 1.284 17.121 4.28 4.28 4.708 7.276 10.272 8.132 16.693l67.625 286.765L845.318 32.32c1.284-6.42 4.28-11.984 8.56-16.692 5.136-2.996 10.7-4.708 16.692-4.28h39.805c5.136-.856 9.844 2.996 10.7 8.132v2.568c0 2.14-.428 4.708-.856 6.848-.856 3.852-1.712 7.277-2.996 10.7l-103.15 330.852c-2.568 8.56-5.564 14.124-8.988 16.692-4.708 2.996-10.7 4.708-16.265 4.28h-36.808c-8.133 0-13.697-1.284-17.121-4.28-4.28-4.708-7.276-10.7-8.132-17.12L660.418 93.954l-65.914 275.638c-.856 6.42-3.852 12.412-8.132 17.12-5.136 3.424-11.128 4.708-17.12 4.28h-36.809zm549.987 11.556c-22.25 0-44.51-2.568-65.91-7.704-21.399-5.136-38.092-10.7-49.22-17.12-5.564-2.568-10.272-6.848-13.268-11.985-1.712-3.852-2.568-7.704-2.568-11.984v-21.828c0-8.988 3.424-13.269 9.844-13.269 2.568 0 5.136.428 7.704 1.284 2.568.856 6.42 2.569 10.7 4.281 14.981 6.848 30.818 11.556 47.078 14.98 16.7 3.424 33.82 5.136 50.94 5.136 26.96 0 47.93-4.708 62.49-14.124 14.12-8.56 22.68-23.969 22.25-40.661.43-11.128-3.85-21.829-11.55-29.961-7.71-8.132-22.26-15.408-43.23-22.256l-62.06-19.261c-31.25-9.844-54.361-24.396-68.486-43.657-13.696-17.976-21.4-39.376-21.4-62.061-.428-16.692 3.424-32.957 11.556-47.509 7.704-13.696 17.977-25.68 30.817-35.097 13.273-10.272 28.253-17.548 44.513-22.256 17.55-5.136 35.52-7.704 53.93-7.276 9.42 0 19.26.428 28.68 1.712 9.84 1.284 18.83 2.996 27.82 4.708 8.98 1.712 16.69 4.28 24.39 6.848 6.42 2.14 12.41 4.708 17.98 7.704 5.13 2.568 9.42 5.992 12.84 10.7 3 4.28 4.28 8.989 3.85 14.125v20.116c0 8.988-3.42 13.697-9.84 13.697-5.57-.856-11.13-2.569-16.27-5.137-25.68-11.556-53.93-17.12-82.18-16.692-24.39 0-43.65 3.852-56.92 11.984-13.27 8.133-20.12 20.545-20.12 38.093-.42 11.556 4.28 22.685 12.84 30.389 8.56 8.132 24.4 16.264 47.08 23.54l60.78 19.261c30.82 9.844 53.08 23.54 66.34 41.088 13.27 17.121 20.12 38.521 19.69 59.922.43 17.12-3.42 34.24-11.13 49.649-7.7 14.552-18.4 27.392-31.24 37.665-14.13 11.128-30.39 19.26-47.51 23.968-19.69 5.992-40.23 8.988-61.21 8.988z" fill="#252F3E"/><path d="M1163.33 610.56c-140.82 104.007-345.405 159.22-521.317 159.22-246.533 0-468.669-91.166-636.449-242.681-13.268-11.985-1.284-28.249 14.552-18.833C201.593 613.557 425.441 677.33 656.995 677.33c166.923-.856 332.135-34.669 485.786-99.298 23.54-10.7 43.66 15.408 20.55 32.528z" fill="#F90"/><path d="M1221.97 543.791c-17.98-23.113-118.99-11.128-164.79-5.564-13.69 1.712-15.83-10.272-3.42-19.261 80.46-56.497 212.72-40.232 228.13-21.4 15.41 18.832-4.28 151.515-79.61 214.86-11.56 9.845-22.69 4.708-17.55-8.132 17.12-42.373 55.21-137.819 37.24-160.503z" fill="#F90"/><path d="M1971.41 481.302c4.28 8.561 10.7 15.837 18.4 21.401 8.14 5.564 17.12 9.844 26.97 11.984 10.27 2.568 20.97 3.852 31.67 3.852 8.13 0 15.84-.856 23.97-1.712 8.13-1.284 16.26-3.424 23.97-7.276 7.27-3.424 13.69-8.56 18.4-14.552 5.14-6.849 7.71-14.981 7.28-23.541.43-9.416-3.43-18.404-9.85-24.824-7.27-6.848-16.26-11.985-25.68-15.837-11.55-4.708-23.54-8.132-35.95-11.128-13.27-2.996-26.96-6.848-40.66-10.7-14.12-3.424-27.82-7.704-41.52-12.84-12.84-4.709-25.25-11.557-35.95-20.117-10.7-8.132-19.26-18.404-25.68-30.388-6.85-13.697-10.27-28.677-9.84-44.085-.43-17.549 3.85-35.097 12.84-50.505 8.13-14.125 19.26-26.537 32.52-35.953 13.7-9.844 29.11-16.693 45.37-21.401 16.7-4.708 33.82-6.848 50.94-6.848 19.26 0 38.09 2.14 56.92 6.42 17.55 3.852 33.81 11.129 48.37 21.401 14.12 9.844 25.68 22.684 33.81 37.665 8.56 17.12 12.84 36.38 12.41 55.641h-80.46c-.43-9.844-3-19.261-7.28-27.821-3.85-7.276-9.42-13.268-16.26-17.548-7.28-4.28-14.98-7.276-23.12-8.988a157.55 157.55 0 00-28.25-2.568c-6.84 0-13.69.856-20.11 2.14-6.42 1.284-12.84 3.852-18.41 7.276-5.56 3.424-9.84 8.132-13.26 13.268-3.86 5.992-5.57 12.84-5.14 20.116-.43 6.421 1.28 12.413 4.28 17.977 4.28 5.992 9.84 10.272 16.69 12.84 11.13 4.708 22.69 8.56 34.24 11.556 14.55 3.852 33.81 8.989 57.36 14.981 6.84 1.284 16.69 3.852 29.53 7.704 13.27 3.852 25.68 9.844 37.23 17.548 12.85 8.56 23.97 19.261 32.11 32.101 8.98 13.696 13.69 30.816 13.69 52.217 0 16.692-3.42 32.957-10.27 48.365-6.85 14.98-17.12 28.249-29.96 38.521-14.55 11.556-31.25 20.116-49.22 25.252-22.26 6.42-44.94 9.416-68.06 8.988-20.54 0-40.66-2.568-60.77-7.704-18.84-4.708-36.38-12.84-51.79-24.396-14.98-11.128-27.39-25.253-35.95-41.945-9.42-18.832-13.7-39.377-12.84-60.349h80.46c-.43 12.412 2.14 23.54 6.85 33.812zm390.34-127.974c8.99-.428 17.55-2.568 25.68-5.992 7.71-2.996 14.56-8.133 19.69-14.553 5.57-7.276 8.13-16.264 7.71-25.252 0-15.837-5.14-28.249-15.84-36.381-10.27-8.56-23.11-12.84-36.38-12.84-19.26 0-33.39 6.42-43.23 18.832-10.27 13.696-14.98 30.389-14.12 47.509h-71.48c.43-17.976 3.85-35.525 10.27-52.217 5.99-14.98 14.55-29.105 26.11-40.661 11.56-11.556 24.82-20.544 39.8-26.108 16.7-6.421 34.24-9.417 51.79-9.417 14.98 0 29.96 2.14 44.52 6.421 14.55 4.28 27.82 11.128 39.8 19.688 11.56 8.56 21.4 19.688 28.68 32.101 7.7 13.268 11.55 28.676 11.13 44.085.42 16.692-4.28 33.384-12.84 47.509-8.99 14.124-22.69 23.968-38.95 28.248v1.284c18.83 3.852 35.95 14.124 47.93 29.533 11.99 15.836 17.98 35.097 17.55 54.357.43 17.976-3.42 35.953-11.13 51.789-7.27 14.98-17.54 27.821-30.38 38.093-13.27 10.272-27.83 18.404-44.09 23.112-16.69 5.136-34.24 8.132-51.79 8.132-19.26.428-38.52-2.996-56.92-8.988-16.27-5.564-31.25-14.552-43.66-26.108-12.41-11.985-21.83-26.109-27.82-42.373-6.85-18.405-9.85-37.665-9.42-57.353h71.48c.43 9.416 1.71 19.26 4.71 28.248 2.57 8.56 6.85 16.265 12.41 23.541 5.56 6.42 11.98 11.984 19.69 15.408 8.99 4.28 18.4 5.992 28.25 5.992 15.83.428 31.24-5.136 42.8-15.408 11.55-10.272 17.55-24.825 17.55-42.801 0-14.124-2.57-24.825-8.14-32.101-5.13-7.276-12.41-12.84-20.97-16.264-8.99-3.424-18.4-5.136-27.82-5.564-10.27-.428-19.69-.856-28.68-.856v-52.645c8.56.856 17.55.856 26.11 0zm-755-344.975h29.96v753.295h-29.96V8.353z" fill="#252F3E"/></g><defs><clipPath id="clip0"><path fill="#fff" d="M0 0h2500v770H0z"/></clipPath></defs></svg>
